public/images/personal.svg

<svg id="Layer_1" data-name="Layer 1" xmlns="http://www.w3.org/2000/svg" viewBox="0 0 511 511"><defs><style>.cls-1{fill:#425fc6}</style></defs><path class="cls-1" d="M476.88 247.76a15 15 0 00-12.81-7.23 126.44 126.44 0 00-107.73 59.88H178.79a74.36 74.36 0 00-52.93 21.93l-88.54 88.54a15 15 0 000 21.17c36.36 36.35 74.51 74.23 74.89 74.6a15 15 0 0021.11 0l56.78-56.52h125.42A104.48 104.48 0 00408.34 394c.45-.87 45.8-87.41 69-131.5a15 15 0 00-.46-14.74zm-95.06 132.32a74.64 74.64 0 01-66.3 40.1H183.93a15 15 0 00-10.57 4.36l-50.61 50.38c-11.93-11.85-32.45-32.27-53.67-53.46l78-77.95a44.59 44.59 0 0131.76-13.16h161.43l-11.49 21.93a14.93 14.93 0 01-13.26 8H213.87a15 15 0 000 29.94h101.65a44.78 44.78 0 0039.78-24.07l23.11-44.09a96.61 96.61 0 0158.93-47.88c-23.89 45.53-55.14 105.17-55.52 105.9zm-48.19-320.2a59.88 59.88 0 10-59.88 59.89 59.95 59.95 0 0059.88-59.89zm-59.88 29.94a29.94 29.94 0 1129.94-29.94 30 30 0 01-29.94 29.94z"/><path class="cls-1" d="M198.9 239.53h149.7a15 15 0 0015-15v-15a89.82 89.82 0 10-179.64 0v15a15 15 0 0014.94 15zm74.85-89.82a60 60 0 0159.88 59.88H213.87a60 60 0 0159.88-59.88z"/></svg>

<svg id="Layer_1" data-name="Layer 1" xmlns="http://www.w3.org/2000/svg" viewBox="0 0 511 511"><defs><style>.cls-1{fill:#425fc6;}</style></defs><title>personal</title><path class="cls-1" d="M476.88,247.76a15,15,0,0,0-12.81-7.23,126.44,126.44,0,0,0-107.73,59.88H178.79a74.36,74.36,0,0,0-52.93,21.93L37.32,410.88a15,15,0,0,0,0,21.17c36.36,36.35,74.51,74.23,74.89,74.6a15,15,0,0,0,21.11,0l56.78-56.52H315.52A104.48,104.48,0,0,0,408.34,394c.45-.87,45.8-87.41,69-131.5A15,15,0,0,0,476.88,247.76ZM381.82,380.08a74.64,74.64,0,0,1-66.3,40.1H183.93a15,15,0,0,0-10.57,4.36l-50.61,50.38c-11.93-11.85-32.45-32.27-53.67-53.46l78-77.95a44.59,44.59,0,0,1,31.76-13.16H340.27l-11.49,21.93a14.93,14.93,0,0,1-13.26,8H213.87a15,15,0,0,0,0,29.94H315.52a44.78,44.78,0,0,0,39.78-24.07l23.11-44.09a96.61,96.61,0,0,1,58.93-47.88C413.45,319.71,382.2,379.35,381.82,380.08Z"/><path class="cls-1" d="M333.63,59.88a59.88,59.88,0,1,0-59.88,59.89A59.95,59.95,0,0,0,333.63,59.88ZM273.75,89.82a29.94,29.94,0,1,1,29.94-29.94A30,30,0,0,1,273.75,89.82Z"/><path class="cls-1" d="M198.9,239.53H348.6a15,15,0,0,0,15-15v-15a89.82,89.82,0,1,0-179.64,0v15A15,15,0,0,0,198.9,239.53Zm74.85-89.82a60,60,0,0,1,59.88,59.88H213.87A60,60,0,0,1,273.75,149.71Z"/></svg>
